www/assets/icons/text_increase.svg

<svg width="24" height="24" viewBox="0 0 24 24" xmlns="http://www.w3.org/2000/svg" fill='currentColor'><path d="M0.994995 19H3.415L4.68499 15.42H10.335L11.595 19H14.015L8.755 5H6.255L0.994995 19ZM5.415 13.39L7.44499 7.6H7.56499L9.595 13.39H5.415ZM20.005 11H23.005V13H20.005V16H18.005V13H15.005V11H18.005V8H20.005V11Z"/></svg>

<svg xmlns="http://www.w3.org/2000/svg" width="24" height="24" viewBox="0 0 24 24" fill='currentColor'><path d="M.995 19h2.42l1.27-3.58h5.65l1.26 3.58h2.42L8.755 5h-2.5zm4.42-5.61 2.03-5.79h.12l2.03 5.79zM20.005 11h3v2h-3v3h-2v-3h-3v-2h3V8h2z"/></svg>
